!!!COM: Music21
!!!OTL: polka_Ffidl-Ffadl
!!!OMV: polka_Ffidl-Ffadl
**kern
*clefG2
*k[f#]
*G:
*M2/4
=1
16.gLL
32aK
16b
16gJJ
=
16ccLL
16b
16cc
16aJJ
4ryy
=
16.gLL
32aK
16b
16gJJ
4ryy
=
16f#LL
16a
16f#
16dJJ
4ryy
=
16.gLL
32aK
16b
16gJJ
4ryy
=
16ccLL
16b
16cc
16aJJ
4ryy
=
16bLL
16dd
32ccL
32b
32a
32gJJJ
4ryy
!!linebreak:original
=
16f#LL
16a
16f#
16dJJ
4ryy
=||
*M2/4
16.gLL
32aK
16b
16gJJ
=
16ccLL
16b
16cc
16aJJ
4ryy
=
16.gLL
32aK
16b
16gJJ
4ryy
=
16f#LL
16a
16f#
16dJJ
4ryy
=
16.gLL
32aK
16b
16gJJ
4ryy
=
16ccLL
16b
16cc
16aJJ
4ryy
!!linebreak:original
=
16bLL
16dd
32ccL
32b
32a
32gJJJ
4ryy
=
16f#LL
16a
16f#
16dJJ
4ryy
=||
16eLL
16cc
16.cc
32gJJk
4ryy
=
16eLL
16cc
16g
16eJJ
4ryy
=
32f#LLL
32aJ
16dd
16.dd
32aJJk
4ryy
=
16f#LL
16dd
16a
16f#JJ
4ryy
=
16eLL
16cc
16.cc
32gJJk
4ryy
!!linebreak:original
=
16eLL
16cc
16g
16eJJ
4ryy
=
16bLL
16dd
32ccL
32b
32a
32gJJJ
4ryy
=
16f#LL
16a
16f#
16dJJ
4ryy
=||
16eLL
16cc
16.cc
32gJJk
4ryy
=
16eLL
16cc
16g
16eJJ
4ryy
=
32f#LLL
32aJ
16dd
16.dd
32aJJk
4ryy
=
16f#LL
16dd
16a
16f#JJ
4ryy
!!linebreak:original
=
16eLL
16cc
16.cc
32gJJk
4ryy
=
16eLL
16cc
16g
16eJJ
4ryy
=
16bLL
16dd
32ccL
32b
32a
32gJJJ
4ryy
=
16f#LL
16a
16f#
16dJJ
4ryy
=||
*-
